icons/issue-in-progress-24.svg

<svg width="24" height="24" viewBox="0 0 24 24" fill="none" xmlns="http://www.w3.org/2000/svg">
<path d="M7.87494 8.19819C8.16784 7.90529 8.64271 7.90529 8.9356 8.19819L12.4711 11.7337C12.764 12.0266 12.764 12.5015 12.4711 12.7944L9.16048 16.105C8.86758 16.3979 8.39271 16.3979 8.09982 16.105C7.80692 15.8121 7.80692 15.3373 8.09982 15.0444L10.8801 12.264L7.87494 9.25885C7.58205 8.96595 7.58205 8.49108 7.87494 8.19819Z" fill="black"/>
<path d="M13.4686 8.19819C13.1757 7.90529 12.7008 7.90529 12.4079 8.19819C12.115 8.49108 12.115 8.96595 12.4079 9.25885L15.4131 12.264L12.6328 15.0444C12.3399 15.3373 12.3399 15.8121 12.6328 16.105C12.9257 16.3979 13.4005 16.3979 13.6934 16.105L17.0041 12.7944C17.297 12.5015 17.297 12.0266 17.0041 11.7337L13.4686 8.19819Z" fill="black"/>
<path fill-rule="evenodd" clip-rule="evenodd" d="M1 12C1 5.92487 5.92487 1 12 1C18.0751 1 23 5.92487 23 12C23 18.0751 18.0751 23 12 23C5.92487 23 1 18.0751 1 12ZM12 2.5C6.75329 2.5 2.5 6.75329 2.5 12C2.5 17.2467 6.75329 21.5 12 21.5C17.2467 21.5 21.5 17.2467 21.5 12C21.5 6.75329 17.2467 2.5 12 2.5Z" fill="black"/>
</svg>

<svg xmlns="http://www.w3.org/2000/svg" width="24" height="24" viewBox="0 0 24 24"><path d="M7.875 8.198a.75.75 0 011.06 0l3.536 3.536a.75.75 0 010 1.06l-3.31 3.311a.75.75 0 01-1.061-1.06l2.78-2.781-3.005-3.005a.75.75 0 010-1.06z"/><path d="M13.469 8.198a.75.75 0 00-1.061 1.06l3.005 3.006-2.78 2.78a.75.75 0 101.06 1.061l3.311-3.31a.75.75 0 000-1.061L13.47 8.198z"/><path fill-rule="evenodd" d="M1 12C1 5.925 5.925 1 12 1s11 4.925 11 11-4.925 11-11 11S1 18.075 1 12zm11-9.5a9.5 9.5 0 100 19 9.5 9.5 0 000-19z"/></svg>
